static/fa/svgs/solid/file-audio.svg

<svg xmlns="http://www.w3.org/2000/svg" viewBox="0 0 384 512"><!--! Font Awesome Free 6.1.1 by @fontawesome - https://fontawesome.com License - https://fontawesome.com/license/free (Icons: CC BY 4.0, Fonts: SIL OFL 1.1, Code: MIT License) Copyright 2022 Fonticons, Inc.--><path d="M224 128V0H48C21.49 0 0 21.49 0 48v416c0 26.5 21.49 48 48 48h288c26.51 0 48-21.49 48-48V160H256.9c-18.6 0-32.9-14.3-32.9-32zm-48 276c0 10.75-12.88 15.98-20.5 8.484L120 376H76c-6.62 0-12-5.4-12-12v-56c0-6.6 5.38-12 12-12h44l35.5-36.5c7.6-7.6 20.5-2.2 20.5 8.5v136zm48-16.2c-4.391 0-8.75-1.835-11.91-5.367-5.906-6.594-5.359-16.69 1.219-22.59C220.2 353.7 224 345.2 224 336s-3.797-17.69-10.69-23.88c-6.578-5.906-7.125-16-1.219-22.59 5.922-6.594 16.05-7.094 22.59-1.219C248.2 300.5 256 317.8 256 336s-7.766 35.53-21.31 47.69c-3.09 2.71-6.89 4.11-10.69 4.11zm96-51.8c0 41.81-20.5 81.11-54.84 105.1a15.98 15.98 0 0 1-9.145 2.875c-5.047 0-10.03-2.375-13.14-6.844-5.047-7.25-3.281-17.22 3.969-22.28C272.6 396.9 288 367.4 288 336s-15.38-60.84-41.14-78.8c-7.25-5.062-9.027-15.03-3.98-22.28 5.047-7.281 14.99-9.062 22.27-3.969C299.5 254.9 320 294.2 320 336zM256 0v128h128L256 0z"/></svg>

<svg xmlns="http://www.w3.org/2000/svg" viewBox="0 0 384 512"><!--! Font Awesome Free 6.1.1 by @fontawesome - https://fontawesome.com License - https://fontawesome.com/license/free (Icons: CC BY 4.0, Fonts: SIL OFL 1.1, Code: MIT License) Copyright 2022 Fonticons, Inc. --><path d="M224 128L224 0H48C21.49 0 0 21.49 0 48v416C0 490.5 21.49 512 48 512h288c26.51 0 48-21.49 48-48V160h-127.1C238.3 160 224 145.7 224 128zM176 404c0 10.75-12.88 15.98-20.5 8.484L120 376H76C69.38 376 64 370.6 64 364v-56C64 301.4 69.38 296 76 296H120l35.5-36.5C163.1 251.9 176 257.3 176 268V404zM224 387.8c-4.391 0-8.75-1.835-11.91-5.367c-5.906-6.594-5.359-16.69 1.219-22.59C220.2 353.7 224 345.2 224 336s-3.797-17.69-10.69-23.88c-6.578-5.906-7.125-16-1.219-22.59c5.922-6.594 16.05-7.094 22.59-1.219C248.2 300.5 256 317.8 256 336s-7.766 35.53-21.31 47.69C231.6 386.4 227.8 387.8 224 387.8zM320 336c0 41.81-20.5 81.11-54.84 105.1c-2.781 1.938-5.988 2.875-9.145 2.875c-5.047 0-10.03-2.375-13.14-6.844c-5.047-7.25-3.281-17.22 3.969-22.28C272.6 396.9 288 367.4 288 336s-15.38-60.84-41.14-78.8c-7.25-5.062-9.027-15.03-3.98-22.28c5.047-7.281 14.99-9.062 22.27-3.969C299.5 254.9 320 294.2 320 336zM256 0v128h128L256 0z"/></svg>
